X:0590
T:The Lillies of France.
M:C
L:1/8
Q:1/4=120
I: :: |:
Z:Jack Campin * www.campin.me.uk * 2009
K:D
(A3/B//c//)|d2 A>F D2G>A|B<GE>d {d}Tc3 d|ec2  e        dB2d|{cd}e2   E>^G   A2 ::
AG         |F>GA=c BGGF |G>ABd   {d}c2BA|d2 d>d        d2cB|   (BA) (GF) {F}E2A2|
            DF`A=c BGGF |E2 ed   {d}c2BA|d2(e3/f//g//) fddA|    BG```FE     D2 |]
<end>
<start>
